X:1
T:Kate and Her Horns
M:3/4
L:1/8
K:C
 D2| GG G2 DD| FE D3 D| GG G2 A2| cd A3 A| dc A2G-E| DD G3 A| dc A2G-E|\
 DC D2||
